X:1
T: Gin I had a Bonny Lass
C:
R:Reel
Q: 232
K:Gm
M:4/4
L:1/8
|:d|BG GA Bc d=e|fg fc A2 FA|BG GA Bc dg|BG A^F G3d|
BG GA Bc d=e|fg fc A2 FA|BG GA Bc dg|BG A^F G3^f|
ga gd ga gd|fg fc A2 FA|ga gd ga gd|ga ba g2 d=e|
fg af g=e fd|cA fc A2 FA|BG GA Bc dg|BG A^F G3:|
